woocommerce-payments/assets/images/payment-methods/affirm-logo-dark.svg

<svg width="429" height="171" viewBox="0 0 429 171" fill="none" xmlns="http://www.w3.org/2000/svg">
<g clip-path="url(#clip0_2525_324)">
<path fill-rule="evenodd" clip-rule="evenodd" d="M28.1 156.27C22.8 156.27 20.1 153.66 20.1 149.37C20.1 141.37 29.02 138.68 45.29 136.95C45.29 147.61 38.08 156.27 28.05 156.27H28.1ZM35.1 96.3198C23.47 96.3198 10.1 101.79 2.83998 107.58L9.46998 121.58C15.29 116.25 24.7 111.69 33.19 111.69C41.26 111.69 45.72 114.39 45.72 119.83C45.72 123.48 42.77 125.33 37.19 126.06C16.33 128.76 -0.0200195 134.52 -0.0200195 150.59C-0.0200195 163.33 9.04998 171.04 23.22 171.04C33.34 171.04 42.34 165.42 46.62 158.04V169.04H65.48V122.95C65.48 103.95 52.29 96.2798 35.11 96.2798L35.1 96.3198Z" fill="white"/>
<path fill-rule="evenodd" clip-rule="evenodd" d="M224.39 98.3902V168.95H244.57V134.95C244.57 118.8 254.35 114.05 261.16 114.05C264.226 114.026 267.229 114.914 269.79 116.6L273.48 97.9502C270.62 96.8056 267.559 96.2511 264.48 96.3202C254.11 96.3202 247.59 100.91 243.29 110.25V98.3902H224.39Z" fill="white"/>
<path fill-rule="evenodd" clip-rule="evenodd" d="M367 96.3198C356.33 96.3198 348.35 102.62 344.2 108.7C340.35 100.85 332.2 96.3198 322.4 96.3198C311.74 96.3198 304.35 102.24 300.94 109.06V98.3898H281.48V168.95H301.68V132.62C301.68 119.62 308.51 113.33 314.88 113.33C320.65 113.33 325.95 117.06 325.95 126.69V168.95H346.11V132.62C346.11 119.43 352.77 113.33 359.44 113.33C364.78 113.33 370.44 117.21 370.44 126.55V168.95H390.6V120.17C390.6 104.32 379.93 96.3198 367.04 96.3198" fill="white"/>
<path fill-rule="evenodd" clip-rule="evenodd" d="M175.28 98.3901H157V91.2201C157 81.8801 162.33 79.2201 166.92 79.2201C170.054 79.261 173.135 80.0313 175.92 81.4701L182.14 67.2401C182.14 67.2401 175.83 63.1201 164.36 63.1201C151.47 63.1201 136.8 70.3901 136.8 93.2001V98.3901H106.25V91.2201C106.25 81.8801 111.57 79.2201 116.17 79.2201C119.309 79.2199 122.4 79.9926 125.17 81.4701L131.39 67.2401C127.68 65.0701 121.71 63.1201 113.62 63.1201C100.73 63.1201 86.0599 70.3901 86.0599 93.2001V98.3901H74.3799V113.95H86.0899V168.95H106.25V113.95H136.84V168.95H157V113.95H175.28V98.3901Z" fill="white"/>
<path d="M207.46 98.3901H187.32V168.92H207.46V98.3901Z" fill="white"/>
<path fill-rule="evenodd" clip-rule="evenodd" d="M188.06 86.4H207.79C219.3 50.21 258.35 18.4 304.79 18.4C361.27 18.4 410.08 61.4 410.08 128.34C410.252 142.08 408.364 155.769 404.48 168.95H423.63L423.82 168.29C427.047 155.241 428.639 141.842 428.56 128.4C428.56 53.75 374.16 0.0200195 304.83 0.0200195C250.37 0.0200195 201.83 37.82 188.07 86.42L188.06 86.4Z" fill="white"/>
</g>
<defs>
<clipPath id="clip0_2525_324">
<rect width="428.55" height="171" fill="white"/>
</clipPath>
</defs>
</svg>

<svg width="429" height="171" fill="none" xmlns="http://www.w3.org/2000/svg"><g clip-path="url(#a)" fill="#fff"><path fill-rule="evenodd" clip-rule="evenodd" d="M28.1 156.27c-5.3 0-8-2.61-8-6.9 0-8 8.92-10.69 25.19-12.42 0 10.66-7.21 19.32-17.24 19.32h.05Zm7-59.95c-11.63 0-25 5.47-32.26 11.26l6.63 14c5.82-5.33 15.23-9.89 23.72-9.89 8.07 0 12.53 2.7 12.53 8.14 0 3.65-2.95 5.5-8.53 6.23-20.86 2.7-37.21 8.46-37.21 24.53 0 12.74 9.07 20.45 23.24 20.45 10.12 0 19.12-5.62 23.4-13v11h18.86v-46.09c0-19-13.19-26.67-30.37-26.67l-.01.04ZM224.39 98.39v70.56h20.18v-34c0-16.15 9.78-20.9 16.59-20.9a15.473 15.473 0 0 1 8.63 2.55l3.69-18.65a22.842 22.842 0 0 0-9-1.63c-10.37 0-16.89 4.59-21.19 13.93V98.39h-18.9ZM367 96.32c-10.67 0-18.65 6.3-22.8 12.38-3.85-7.85-12-12.38-21.8-12.38-10.66 0-18.05 5.92-21.46 12.74V98.39h-19.46v70.56h20.2v-36.33c0-13 6.83-19.29 13.2-19.29 5.77 0 11.07 3.73 11.07 13.36v42.26h20.16v-36.33c0-13.19 6.66-19.29 13.33-19.29 5.34 0 11 3.88 11 13.22v42.4h20.16v-48.78c0-15.85-10.67-23.85-23.56-23.85M175.28 98.39H157v-7.17c0-9.34 5.33-12 9.92-12a20.18 20.18 0 0 1 9 2.25l6.22-14.23s-6.31-4.12-17.78-4.12c-12.89 0-27.56 7.27-27.56 30.08v5.19h-30.55v-7.17c0-9.34 5.32-12 9.92-12 3.139 0 6.23.773 9 2.25l6.22-14.23c-3.71-2.17-9.68-4.12-17.77-4.12-12.89 0-27.56 7.27-27.56 30.08v5.19H74.38v15.56h11.71v55h20.16v-55h30.59v55H157v-55h18.28V98.39Z"/><path d="M207.46 98.39h-20.14v70.53h20.14V98.39Z"/><path fill-rule="evenodd" clip-rule="evenodd" d="M188.06 86.4h19.73c11.51-36.19 50.56-68 97-68 56.48 0 105.29 43 105.29 109.94a137.585 137.585 0 0 1-5.6 40.61h19.15l.19-.66a162.189 162.189 0 0 0 4.74-39.89C428.56 53.75 374.16.02 304.83.02c-54.46 0-103 37.8-116.76 86.4l-.01-.02Z"/></g><defs><clipPath id="a"><path fill="#fff" d="M0 0h428.55v171H0z"/></clipPath></defs></svg>
